Sweet-Rainbow/icons/office-calendar.svg

<?xml version="1.0" encoding="UTF-8" standalone="no"?>
<!-- Generator: Gravit.io -->

<svg
   xmlns:dc="http://purl.org/dc/elements/1.1/"
   xmlns:cc="http://creativecommons.org/ns#"
   xmlns:rdf="http://www.w3.org/1999/02/22-rdf-syntax-ns#"
   xmlns:svg="http://www.w3.org/2000/svg"
   xmlns="http://www.w3.org/2000/svg"
   xmlns:sodipodi="http://sodipodi.sourceforge.net/DTD/sodipodi-0.dtd"
   xmlns:inkscape="http://www.inkscape.org/namespaces/inkscape"
   style="isolation:isolate"
   viewBox="0 0 48 48"
   width="48"
   height="48"
   version="1.1"
   id="svg11"
   sodipodi:docname="office-calendar.svg"
   inkscape:version="0.92.4 (5da689c313, 2019-01-14)">
  <metadata
     id="metadata17">
    <rdf:RDF>
      <cc:Work
         rdf:about="">
        <dc:format>image/svg+xml</dc:format>
        <dc:type
           rdf:resource="http://purl.org/dc/dcmitype/StillImage" />
        <dc:title></dc:title>
      </cc:Work>
    </rdf:RDF>
  </metadata>
  <defs
     id="defs15" />
  <sodipodi:namedview
     pagecolor="#ffffff"
     bordercolor="#666666"
     borderopacity="1"
     objecttolerance="10"
     gridtolerance="10"
     guidetolerance="10"
     inkscape:pageopacity="0"
     inkscape:pageshadow="2"
     inkscape:window-width="640"
     inkscape:window-height="480"
     id="namedview13"
     showgrid="false"
     inkscape:zoom="39.153656"
     inkscape:cx="18.994082"
     inkscape:cy="24"
     inkscape:current-layer="svg11" />
  <linearGradient
     id="_lgradient_0"
     x1="0"
     y1="0.5"
     x2="0.90748805"
     y2="0.92007786"
     gradientTransform="matrix(44,0,0,43,2,2)"
     gradientUnits="userSpaceOnUse">
    <stop
       offset="0%"
       stop-opacity="1"
       style="stop-color:rgb(58,28,113)"
       id="stop2" />
    <stop
       offset="49.56521739130435%"
       stop-opacity="1"
       style="stop-color:rgb(215,109,119)"
       id="stop4" />
    <stop
       offset="100%"
       stop-opacity="1"
       style="stop-color:rgb(255,175,123)"
       id="stop6" />
  </linearGradient>
  <g
     id="g825"
     transform="matrix(1.0909091,0,0,1.0909091,-2.1818184,-1.6363638)">
    <path
       id="path9"
       d="M 16,9 V 4 C 16,2.896 15.104,2 14,2 V 2 2 2 C 12.896,2 12,2.896 12,4 V 9 H 6.743 C 4.125,9 2,11.125 2,13.743 v 25.857 0 c 0,0.993 0.896,1.8 2,1.8 v 0 c 1.104,0 2,-0.807 2,-1.8 v 0 -24.154 C 6,13.875 7.275,12.6 8.846,12.6 H 39.154 C 40.725,12.6 42,13.875 42,15.446 V 38.554 C 42,40.125 40.725,41.4 39.154,41.4 H 14.09 v 0 c -1.104,0 -2,0.807 -2,1.8 v 0 c 0,0.993 0.896,1.8 2,1.8 v 0 H 41.257 C 43.875,45 46,42.875 46,40.257 V 13.743 C 46,11.125 43.875,9 41.257,9 H 36 V 4 C 36,2.896 35.104,2 34,2 v 0 0 c -1.104,0 -2,0.896 -2,2 v 5 z m -6,17 c 0,-1.104 0.896,-2 2,-2 1.104,0 2,0.896 2,2 0,1.104 -0.896,2 -2,2 -1.104,0 -2,-0.896 -2,-2 z m 8,0 c 0,-1.104 0.896,-2 2,-2 1.104,0 2,0.896 2,2 0,1.104 -0.896,2 -2,2 -1.104,0 -2,-0.896 -2,-2 z m 8,0 c 0,-1.104 0.896,-2 2,-2 1.104,0 2,0.896 2,2 0,1.104 -0.896,2 -2,2 -1.104,0 -2,-0.896 -2,-2 z m 8,0 c 0,-1.104 0.896,-2 2,-2 1.104,0 2,0.896 2,2 0,1.104 -0.896,2 -2,2 -1.104,0 -2,-0.896 -2,-2 z M 18,18 c 0,-1.104 0.896,-2 2,-2 1.104,0 2,0.896 2,2 0,1.104 -0.896,2 -2,2 -1.104,0 -2,-0.896 -2,-2 z m 8,0 c 0,-1.104 0.896,-2 2,-2 1.104,0 2,0.896 2,2 0,1.104 -0.896,2 -2,2 -1.104,0 -2,-0.896 -2,-2 z m 8,0 c 0,-1.104 0.896,-2 2,-2 1.104,0 2,0.896 2,2 0,1.104 -0.896,2 -2,2 -1.104,0 -2,-0.896 -2,-2 z M 10,34 c 0,-1.104 0.896,-2 2,-2 1.104,0 2,0.896 2,2 0,1.104 -0.896,2 -2,2 -1.104,0 -2,-0.896 -2,-2 z m 8,0 c 0,-1.104 0.896,-2 2,-2 1.104,0 2,0.896 2,2 0,1.104 -0.896,2 -2,2 -1.104,0 -2,-0.896 -2,-2 z m 8,0 c 0,-1.104 0.896,-2 2,-2 1.104,0 2,0.896 2,2 0,1.104 -0.896,2 -2,2 -1.104,0 -2,-0.896 -2,-2 z m 8,0 c 0,-1.104 0.896,-2 2,-2 1.104,0 2,0.896 2,2 0,1.104 -0.896,2 -2,2 -1.104,0 -2,-0.896 -2,-2 z"
       style="fill:url(#_lgradient_0);fill-rule:evenodd"
       inkscape:connector-curvature="0" />
  </g>
</svg>

<?xml version="1.0" standalone="no"?><!-- Generator: Gravit.io --><svg xmlns="http://www.w3.org/2000/svg" xmlns:xlink="http://www.w3.org/1999/xlink" style="isolation:isolate" viewBox="0 0 48 48" width="48px" height="48px"><linearGradient id="_lgradient_0" x1="0" y1="0.5" x2="0.9074880558539661" y2="0.9200778838291643" gradientTransform="matrix(44,0,0,43,2,2)" gradientUnits="userSpaceOnUse"><stop offset="0%" stop-opacity="1" style="stop-color:rgb(58,28,113)"/><stop offset="49.56521739130435%" stop-opacity="1" style="stop-color:rgb(215,109,119)"/><stop offset="100%" stop-opacity="1" style="stop-color:rgb(255,175,123)"/></linearGradient><path d=" M 16 9 L 16 4 C 16 2.896 15.104 2 14 2 L 14 2 L 14 2 L 14 2 C 12.896 2 12 2.896 12 4 L 12 9 L 6.743 9 C 4.125 9 2 11.125 2 13.743 L 2 39.6 L 2 39.6 C 2 40.593 2.896 41.4 4 41.4 L 4 41.4 C 5.104 41.4 6 40.593 6 39.6 L 6 39.6 L 6 15.446 C 6 13.875 7.275 12.6 8.846 12.6 L 39.154 12.6 C 40.725 12.6 42 13.875 42 15.446 L 42 38.554 C 42 40.125 40.725 41.4 39.154 41.4 L 14.09 41.4 L 14.09 41.4 C 12.986 41.4 12.09 42.207 12.09 43.2 L 12.09 43.2 C 12.09 44.193 12.986 45 14.09 45 L 14.09 45 L 41.257 45 C 43.875 45 46 42.875 46 40.257 L 46 13.743 C 46 11.125 43.875 9 41.257 9 L 36 9 L 36 4 C 36 2.896 35.104 2 34 2 L 34 2 L 34 2 C 32.896 2 32 2.896 32 4 L 32 9 L 16 9 Z  M 10 26 C 10 24.896 10.896 24 12 24 C 13.104 24 14 24.896 14 26 C 14 27.104 13.104 28 12 28 C 10.896 28 10 27.104 10 26 L 10 26 L 10 26 L 10 26 L 10 26 L 10 26 L 10 26 L 10 26 L 10 26 L 10 26 L 10 26 L 10 26 L 10 26 Z  M 18 26 C 18 24.896 18.896 24 20 24 C 21.104 24 22 24.896 22 26 C 22 27.104 21.104 28 20 28 C 18.896 28 18 27.104 18 26 L 18 26 L 18 26 L 18 26 L 18 26 L 18 26 L 18 26 L 18 26 L 18 26 L 18 26 L 18 26 L 18 26 L 18 26 Z  M 26 26 C 26 24.896 26.896 24 28 24 C 29.104 24 30 24.896 30 26 C 30 27.104 29.104 28 28 28 C 26.896 28 26 27.104 26 26 L 26 26 L 26 26 L 26 26 L 26 26 L 26 26 L 26 26 L 26 26 L 26 26 L 26 26 L 26 26 L 26 26 Z  M 34 26 C 34 24.896 34.896 24 36 24 C 37.104 24 38 24.896 38 26 C 38 27.104 37.104 28 36 28 C 34.896 28 34 27.104 34 26 L 34 26 L 34 26 L 34 26 L 34 26 L 34 26 L 34 26 L 34 26 L 34 26 L 34 26 L 34 26 Z  M 18 18 C 18 16.896 18.896 16 20 16 C 21.104 16 22 16.896 22 18 C 22 19.104 21.104 20 20 20 C 18.896 20 18 19.104 18 18 L 18 18 L 18 18 L 18 18 L 18 18 L 18 18 L 18 18 L 18 18 L 18 18 L 18 18 Z  M 26 18 C 26 16.896 26.896 16 28 16 C 29.104 16 30 16.896 30 18 C 30 19.104 29.104 20 28 20 C 26.896 20 26 19.104 26 18 L 26 18 L 26 18 L 26 18 L 26 18 L 26 18 L 26 18 L 26 18 L 26 18 Z  M 34 18 C 34 16.896 34.896 16 36 16 C 37.104 16 38 16.896 38 18 C 38 19.104 37.104 20 36 20 C 34.896 20 34 19.104 34 18 L 34 18 L 34 18 L 34 18 L 34 18 L 34 18 L 34 18 L 34 18 Z  M 10 34 C 10 32.896 10.896 32 12 32 C 13.104 32 14 32.896 14 34 C 14 35.104 13.104 36 12 36 C 10.896 36 10 35.104 10 34 L 10 34 L 10 34 L 10 34 L 10 34 L 10 34 L 10 34 Z  M 18 34 C 18 32.896 18.896 32 20 32 C 21.104 32 22 32.896 22 34 C 22 35.104 21.104 36 20 36 C 18.896 36 18 35.104 18 34 L 18 34 L 18 34 L 18 34 L 18 34 L 18 34 Z  M 26 34 C 26 32.896 26.896 32 28 32 C 29.104 32 30 32.896 30 34 C 30 35.104 29.104 36 28 36 C 26.896 36 26 35.104 26 34 L 26 34 L 26 34 L 26 34 L 26 34 Z  M 34 34 C 34 32.896 34.896 32 36 32 C 37.104 32 38 32.896 38 34 C 38 35.104 37.104 36 36 36 C 34.896 36 34 35.104 34 34 L 34 34 L 34 34 L 34 34 Z " fill-rule="evenodd" fill="url(#_lgradient_0)"/></svg>
